packages/foundations/assets/icons/functional/images/accessibility/support_dog_28.svg

<svg width="28" height="28" viewBox="0 0 28 28" fill="none" xmlns="http://www.w3.org/2000/svg">
<g clip-path="url(#clip0_183_3614)">
<path fill-rule="evenodd" clip-rule="evenodd" d="M25.651 6.67086L20.972 5.11086L17.868 2.00786C17.7546 1.89369 17.6118 1.8131 17.4555 1.77497C17.2991 1.73685 17.1353 1.74268 16.982 1.79183C16.8288 1.84098 16.6921 1.93153 16.5871 2.05348C16.4821 2.17542 16.4129 2.32402 16.387 2.48286L14.884 11.5009H14.789L4.855 1.99386C4.68508 1.84679 4.46513 1.77065 4.24065 1.78118C4.01617 1.79171 3.80432 1.88812 3.64892 2.05046C3.49351 2.21279 3.40644 2.42865 3.40571 2.65338C3.40499 2.87811 3.49065 3.09452 3.645 3.25786L12.257 11.4999H4.297C4.069 11.4579 3.5 10.9589 3.5 9.12586C3.5 9.01095 3.47737 8.89717 3.43339 8.79101C3.38942 8.68485 3.32497 8.58839 3.24372 8.50714C3.16247 8.42589 3.06601 8.36144 2.95985 8.31747C2.85369 8.27349 2.73991 8.25086 2.625 8.25086C2.51009 8.25086 2.39631 8.27349 2.29015 8.31747C2.18399 8.36144 2.08753 8.42589 2.00628 8.50714C1.92503 8.58839 1.86058 8.68485 1.81661 8.79101C1.77263 8.89717 1.75 9.01095 1.75 9.12586C1.75 11.6299 2.653 12.6109 3.375 12.9979V22.9379C3.37606 23.8161 3.72548 24.6581 4.34659 25.279C4.96769 25.8999 5.80975 26.2491 6.688 26.2499C7.56607 26.2488 8.40788 25.8995 9.02877 25.2786C9.64966 24.6577 9.99894 23.8159 10 22.9379V20.2079C10.665 20.4399 11.513 20.6559 12.375 20.6559C13.237 20.6559 14.085 20.4399 14.75 20.2079V22.9379C14.7511 23.8161 15.1005 24.6581 15.7216 25.279C16.3427 25.8999 17.1848 26.2491 18.063 26.2499C18.9411 26.2488 19.7829 25.8995 20.4038 25.2786C21.0247 24.6577 21.3739 23.8159 21.375 22.9379V12.4349C22.288 12.4289 23.635 12.2429 24.695 11.3569C25.727 10.4939 26.25 9.19586 26.25 7.50086C26.25 7.12386 26.01 6.79086 25.651 6.67086ZM9.55 18.1109C9.41671 18.0375 9.26661 18 9.11446 18.0022C8.96232 18.0044 8.81335 18.0461 8.68221 18.1233C8.55107 18.2004 8.44226 18.3104 8.36648 18.4424C8.29071 18.5743 8.25056 18.7237 8.25 18.8759V22.9379C8.23552 23.3427 8.0645 23.7262 7.77296 24.0075C7.48143 24.2887 7.09212 24.4459 6.687 24.4459C6.28188 24.4459 5.89257 24.2887 5.60104 24.0075C5.3095 23.7262 5.13848 23.3427 5.124 22.9379V13.2509H13.562V18.7379C13.1746 18.8437 12.7755 18.9008 12.374 18.9079C11.004 18.9079 9.564 18.1199 9.549 18.1119L9.55 18.1109ZM18.063 24.5009C17.201 24.5009 16.5 23.8009 16.5 22.9379V18.8759C16.4999 18.761 16.4771 18.6472 16.433 18.5411C16.3889 18.435 16.3244 18.3386 16.243 18.2574C16.1617 18.1763 16.0651 18.1119 15.9589 18.0681C15.8527 18.0242 15.7389 18.0017 15.624 18.0019C15.517 18.0039 15.4112 18.0256 15.312 18.0659V13.6579L19.625 15.3479V22.9379C19.625 23.7999 18.925 24.5009 18.063 24.5009ZM23.579 10.0089C22.475 10.9389 20.67 10.6439 20.654 10.6399C20.528 10.6172 20.3985 10.6224 20.2747 10.6553C20.151 10.6881 20.0359 10.7478 19.9377 10.83C19.8396 10.9123 19.7607 11.0151 19.7066 11.1312C19.6526 11.2473 19.6247 11.3738 19.625 11.5019V13.4699L16.532 12.2569L17.834 4.44786L19.882 6.49486C19.9783 6.59052 20.0953 6.66272 20.224 6.70586L24.468 8.12086C24.373 8.95886 24.076 9.59286 23.579 10.0089Z" fill="#1A1C1F"/>
</g>
<defs>
<clipPath id="clip0_183_3614">
<rect width="28" height="28" fill="white"/>
</clipPath>
</defs>
</svg>

<svg xmlns="http://www.w3.org/2000/svg" width="28" height="28" fill="none"><g clip-path="url(#a)"><path fill="#1A1C1F" fill-rule="evenodd" d="m25.651 6.67-4.679-1.56-3.104-3.102a.873.873 0 0 0-1.481.475L14.884 11.5h-.095L4.855 1.994a.876.876 0 0 0-1.21 1.264l8.612 8.242h-7.96c-.228-.042-.797-.541-.797-2.374a.875.875 0 1 0-1.75 0c0 2.504.903 3.485 1.625 3.872v9.94a3.316 3.316 0 0 0 3.313 3.312A3.316 3.316 0 0 0 10 22.938v-2.73c.665.232 1.513.448 2.375.448s1.71-.216 2.375-.448v2.73a3.316 3.316 0 0 0 3.313 3.312 3.316 3.316 0 0 0 3.312-3.312V12.435c.913-.006 2.26-.192 3.32-1.078 1.032-.863 1.555-2.161 1.555-3.856 0-.377-.24-.71-.599-.83M9.55 18.11a.877.877 0 0 0-1.3.766v4.062a1.564 1.564 0 0 1-3.126 0V13.25h8.438v5.487a4.8 4.8 0 0 1-1.188.17c-1.37 0-2.81-.788-2.825-.796zm8.513 6.39c-.862 0-1.563-.7-1.563-1.562v-4.062a.874.874 0 0 0-.876-.874.9.9 0 0 0-.312.064v-4.408l4.313 1.69v7.59c0 .862-.7 1.563-1.562 1.563m5.516-14.491c-1.104.93-2.909.635-2.925.63a.874.874 0 0 0-1.029.863v1.968l-3.093-1.213 1.302-7.81 2.048 2.048a.9.9 0 0 0 .342.21l4.244 1.416c-.095.838-.392 1.472-.889 1.888" clip-rule="evenodd"/></g><defs><clipPath id="a"><path fill="#fff" d="M0 0h28v28H0z"/></clipPath></defs></svg>
